joystream-website-assets/live/rocketchat-icon.svg

<svg fill="none" height="20" viewBox="0 0 20 20" width="20" xmlns="http://www.w3.org/2000/svg"><g fill="#fff"><path d="m19.6328 9.97263c0-.98438-.293-1.92969-.875-2.8086-.5234-.78906-1.2539-1.48828-2.1758-2.07422-1.7812-1.13672-4.1172-1.76172-6.582-1.76172-.82422 0-1.63672.07032-2.42188.20704-.48828-.45704-1.05859-.86719-1.66406-1.19532-3.23437-1.566403-5.91406-.03515-5.91406-.03515s2.49219 2.04687 2.08594 3.83984c-1.113284 1.10547-1.718752 2.44141-1.718752 3.82813v.01172.01171c0 1.38674.605468 2.72264 1.718752 3.82814.40625 1.7969-2.08594 3.8437-2.08594 3.8437s2.67969 1.5313 5.91406-.0351c.60547-.3242 1.17578-.7383 1.66406-1.1953.78907.1367 1.59766.207 2.42188.207 2.4648 0 4.8008-.625 6.582-1.7617.9219-.5899 1.6524-1.2852 2.1758-2.0742.582-.8789.875-1.8243.875-2.80863 0-.00391 0-.00781 0-.01172 0-.00781 0-.01172 0-.01562zm-9.6328 5.30857c-1.01562 0-1.98828-.1172-2.89062-.332-.91407 1.0976-2.92579 2.6289-4.87891 2.1328.63672-.6836 1.57812-1.8359 1.375-3.7344-1.17188-.9101-1.875-2.0781-1.875-3.34763 0-2.91406 3.69922-5.28125 8.26562-5.28125 4.56641 0 8.26561 2.36328 8.26561 5.28125.0039 2.91403-3.6953 5.28123-8.2617 5.28123z"/><path d="m10 9.07031c-.60547 0-1.09766.49219-1.09766 1.09769 0 .6054.49219 1.0976 1.09766 1.0976.6055 0 1.0977-.4922 1.0977-1.0976 0-.6055-.4922-1.09769-1.0977-1.09769z"/><path d="m13.8164 9.07031c-.6055 0-1.0976.49219-1.0976 1.09769 0 .6054.4921 1.0976 1.0976 1.0976s1.0977-.4922 1.0977-1.0976c0-.6055-.4922-1.09769-1.0977-1.09769z"/><path d="m6.18359 9.07031c-.60546 0-1.09765.49219-1.09765 1.09769 0 .6054.49219 1.0976 1.09765 1.0976.60547 0 1.09766-.4922 1.09766-1.0976 0-.6055-.49219-1.09769-1.09766-1.09769z"/></g></svg>

<svg width="20" height="20" viewBox="0 0 20 20" fill="none" xmlns="http://www.w3.org/2000/svg">
<path d="M19.6328 9.97263C19.6328 8.98825 19.3398 8.04294 18.7578 7.16403C18.2344 6.37497 17.5039 5.67575 16.582 5.08981C14.8008 3.95309 12.4648 3.32809 10 3.32809C9.17578 3.32809 8.36328 3.39841 7.57812 3.53513C7.08984 3.07809 6.51953 2.66794 5.91406 2.33981C2.67969 0.773407 0 2.30466 0 2.30466C0 2.30466 2.49219 4.35153 2.08594 6.1445C0.972656 7.24997 0.367188 8.58591 0.367188 9.97263V9.98435V9.99606C0.367188 11.3828 0.972656 12.7187 2.08594 13.8242C2.49219 15.6211 0 17.6679 0 17.6679C0 17.6679 2.67969 19.1992 5.91406 17.6328C6.51953 17.3086 7.08984 16.8945 7.57812 16.4375C8.36719 16.5742 9.17578 16.6445 10 16.6445C12.4648 16.6445 14.8008 16.0195 16.582 14.8828C17.5039 14.2929 18.2344 13.5976 18.7578 12.8086C19.3398 11.9297 19.6328 10.9843 19.6328 9.99997C19.6328 9.99606 19.6328 9.99216 19.6328 9.98825C19.6328 9.98044 19.6328 9.97653 19.6328 9.97263ZM10 15.2812C8.98438 15.2812 8.01172 15.164 7.10938 14.9492C6.19531 16.0468 4.18359 17.5781 2.23047 17.082C2.86719 16.3984 3.80859 15.2461 3.60547 13.3476C2.43359 12.4375 1.73047 11.2695 1.73047 9.99997C1.73047 7.08591 5.42969 4.71872 9.99609 4.71872C14.5625 4.71872 18.2617 7.082 18.2617 9.99997C18.2656 12.914 14.5664 15.2812 10 15.2812Z" fill="white"/>
<path d="M10 9.07031C9.39453 9.07031 8.90234 9.5625 8.90234 10.168C8.90234 10.7734 9.39453 11.2656 10 11.2656C10.6055 11.2656 11.0977 10.7734 11.0977 10.168C11.0977 9.5625 10.6055 9.07031 10 9.07031Z" fill="white"/>
<path d="M13.8164 9.07031C13.2109 9.07031 12.7188 9.5625 12.7188 10.168C12.7188 10.7734 13.2109 11.2656 13.8164 11.2656C14.4219 11.2656 14.9141 10.7734 14.9141 10.168C14.9141 9.5625 14.4219 9.07031 13.8164 9.07031Z" fill="white"/>
<path d="M6.18359 9.07031C5.57813 9.07031 5.08594 9.5625 5.08594 10.168C5.08594 10.7734 5.57813 11.2656 6.18359 11.2656C6.78906 11.2656 7.28125 10.7734 7.28125 10.168C7.28125 9.5625 6.78906 9.07031 6.18359 9.07031Z" fill="white"/>
</svg>
